X:1
T:Four Walls
M:3/4
L:1/4
K:G
 B B B| B c3/2 d/2| d c2-| c z B| A A3/2 A/2| d d3/2 c/2| B3-| B z c|\
 d d d| d3/2 e/2 d| d c2-| c z c| d D c| B D A| G3-| G z| B3| B2 B|\
 c c2-| c2 z| A3| d2 c| B3-| B2 z| d3| g2 f| f e2-| e2 z| d- D c| B2 A|\
 G3-| G2 z|
